X: 36659
T: Sharon Doro's
R: mazurka
M: 3/4
K: Dmajor
|AG|:~F3G AF|GF G2 ed|c2 cd cB|~A3B AG|
~F3G AF|GF G2 ed|c2 cd ec|1 d4 AG:|2 d4 Ad||
~f4 gf|~e3d cd|ed eg fe|d4 Ad|
~f4 gf|~e3d cd|ed eg fe|1 d4 Ad:|2 d4||

